X:25
T: Ken Vesey's
C: BB
R: hornpipe
Q: 1/8=320
M: 4/4
L: 1/8
K: C
AB|"C"cGEG "Am7"AGEG|"C"cAGE "G"(3DED "C"C2|"Dm"DEFE "D"DE^FE|"G"DGG^F G2 AB|
"C"cGEG "Am7"AGEG|"C"cAGE "G"(3DED "C"C2|"G"gd"C"ec "G"dB"Am"cA|"G"GEDE "C"C2 :|
AB|"C"c2 gc acgc|"F"fagf "C"edcB|"Am"c2 Bc ABcB|"Am7"AGEG A2 AB|
"C"c2 gc acgc|"F"fagf "C"edcB|"Am"c2 Gc "C"EcGE|"G7"FDB,D "C"C2 :|
